X: 1
T: Haste To The Wedding
N: Cape Breton setting 
M: 6/8
L: 1/8
Q: 3/8=126
R: jig
K: A
GF|EFE E z c|BAc BAF|EFE E z C|B,CB, B,CD|
EFE E z c|BAc BAF|EFA BAB|cAA A:|
cd|ece ece|fdf fdf|ece edc|BcB Bcd|
eag fec|BAc BAF|EFA BAB|cAA A:|
